app/fav/fav.svg

<svg viewBox="0 0 970 970" xmlns="http://www.w3.org/2000/svg"><path d="m500 15c-267.87 0-485 217.13-485 485s217.13 485 485 485 485-217.15 485-485-217.13-485-485-485zm-93.12 414.75-124.66 72.06 124.66 63.9v54.29l-181-99.59v-32.47l181-112.77zm69.06 236.44h-50.48l99.32-332.39h50.48zm298.16-145.74-180.98 99.55v-54.29l124.66-63.9-124.66-72.06v-54.56l180.98 112.81z" fill="#9fd8e9" transform="translate(-15 -15)"/></svg>

<svg id="b3f36eb4-096c-4bb0-a274-1ab485b0f483" data-name="Layer 1" xmlns="http://www.w3.org/2000/svg" viewBox="0 0 970 970"><title>fav</title><path d="M500,15C232.13,15,15,232.13,15,500S232.13,985,500,985,985,767.85,985,500,767.87,15,500,15ZM406.88,429.75,282.22,501.81l124.66,63.9V620l-181-99.59V487.94l181-112.77Zm69.06,236.44H425.46L524.78,333.8h50.48ZM774.1,520.45,593.12,620V565.71l124.66-63.9L593.12,429.75V375.19L774.1,488Z" transform="translate(-15 -15)" style="fill:#9fd8e9"/></svg>
